!!!OTL: 170. Seefahrt nach Afrika, Gefangenschaft und Befreiung.
!!!ARE: Europa, Mitteleuropa, Deutschland, Rheinland
!!!SCT: B0170A
!!!TXL: @@DE
!!!YEM: Copyright 1995, estate of Helmut Schaffrath.
**kern	**text
*ICvox	*
*Ivox	*
*M4/4	*
*met(c)	*
*clefG2	*
*k[]	*
*C:	*
!LO:TX:a:t=Mäßig langſam.	!
{8g	Jch
8g	leb-
8g	-te
=1	=1
4.e	einſt
8g	im
8cc	deut-
8b	-ſchen
8a	Va-
8g	-ter-
=2	=2
8gL	-lan-
8fJ	.
4f	-de
8r}	.
{8f	der
8f	gold-
8d	-nen
=3	=3
4.dd	Frei-
8cc	-heit
8b/	acht-
8a	-ʒehn
8g	Jahr
8f	da-
=4	=4
2e	-hin
8r}	.
{8cc	da
8cc	ʒog
8cc	die
=5	=5
4.a	Neu-
8b	-be-
8dd	-gier-
8cc	-de
8b	mich
8a	ʒum
=6	=6
8aL	Stran-
8gJ	-de,
4.g}	.
{8cc	und
8g	ich
8e	be-
=7	=7
4.d	-ſtieg
8c	ein
8b	Schiff
8g	mit
8a	fro-
8g	-hem
=8	=8
2e	Sinn.
8r}	.
==	==
!!!AGN: Ballade, Romanze
!!!GTL: Balladen und Romanzen
!!!ONB: ESAC (Essen Associative Code) Database: BOEHME
!!!AMT: simple quadruple
!!!AIN: vox
!!!EED: Helmut Schaffrath
!!!EEV: 1.0
!!vom Rhein 1894.
!!!URL-scan: https://archive.org/details/BoehmeVtLieder1895/page/n169/mode/2up
!!!ENC: Anna Maria Matuszewska
!!!EEV: 2024/19/06
*-	*-
